X:32
T:Kitty Lie Over
S:Learned from Jessie, Joe, and Tim at Tigin session 1/23/16. Has a different B part than I originally learned
R:Jig
M:6/8
L:1/8
K:D
def edB | AFD AFD | DFA AFA | Bed e3 |
def edB | AFD AFD | DFA AFA | Bdc d3 :|
|: fef afd | gfg bag | fef afd | fgg efg |
fef afd | gfg bag | fga efg | fdc d3 :|

